src/assets/my-logo/logo-text.svg

<?xml version="1.0" encoding="utf-8"?>
<svg viewBox="14.129 23.164 121.271 106.715" xmlns="http://www.w3.org/2000/svg">
  <!-- <defs>
    <linearGradient id="gradient">
      <stop offset="5%" stop-color="#fc28a8" />
      <stop offset="95%" stop-color="#03edf9" />
    </linearGradient>
  </defs> -->
  <style>
      path {
        fill: #000;
    }
    @media (prefers-color-scheme: dark) {
        path {
            fill: #fff;
        }
    }
</style>
  <path d="M 133.385 125.761 C 134.06 127.104 134.55 128.111 135.401 129.859 C 129.225 129.859 123.654 129.943 118.092 129.775 C 117.181 129.748 115.945 128.815 115.465 127.96 C 104.95 109.267 94.521 90.525 83.504 70.767 C 88.849 70.767 93.384 70.831 97.917 70.755 C 111.837 70.523 118.011 62.904 115.351 49.315 C 114.146 43.161 109.959 38.935 102.941 38.143 C 96.677 37.436 90.298 37.465 83.986 37.667 C 82.383 37.719 80.512 39.387 79.321 40.786 C 64.964 57.66 50.638 74.563 36.494 91.616 C 33.727 94.952 31.852 96.224 27.455 96.281 C 23.161 96.337 18.807 96.346 14.445 96.346 C 15.799 94.619 16.619 93.623 17.363 92.703 C 35.271 70.551 53.157 48.379 71.226 26.358 C 72.555 24.738 75.227 23.375 77.292 23.35 C 86.933 23.234 96.701 22.747 106.198 24.045 C 121.463 26.13 130.601 36.06 132.142 50.23 C 133.738 64.902 126.967 75.595 112.199 81.733 C 111.325 82.096 110.468 82.503 109.116 83.108 C 117.272 97.439 125.236 111.432 133.385 125.761 Z" />
  <path d=" M77.596062,96.396614 C84.079895,107.458153 90.385101,118.199463 97.229431,129.859207 C90.775665,129.859207 85.094368,129.943497 79.420792,129.772034 C78.528122,129.745041 77.342911,128.747452 76.845573,127.881332 C68.812012,113.890915 60.830097,99.870186 52.984570,85.773895 C52.432789,84.782486 52.526775,82.759636 53.194378,81.878654 C55.990219,78.189186 59.119308,74.752251 62.438011,70.856934 C67.607483,79.560287 72.512459,87.818336 77.596062,96.396614 z" />
  <path d=" M14.129782,62.999802 C14.129782,49.568806 14.129782,36.637749 14.129782,23.457050 C19.559189,23.457050 24.486689,23.457050 30.013590,23.457050 C30.102188,25.138340 30.266041,26.877495 30.273752,28.617342 C30.322430,39.599438 30.503355,50.585720 30.238016,61.560886 C30.176039,64.124458 29.071735,67.016823 27.560989,69.122124 C23.698265,74.505035 19.336342,79.529724 14.129781,85.994324 C14.129781,77.524666 14.129781,70.512207 14.129782,62.999802 z" />
</svg>

<svg viewBox="14.129 23.164 121.271 106.715" xmlns="http://www.w3.org/2000/svg">
    <style>
        path{fill:#000}@media (prefers-color-scheme:dark){path{fill:#fff}}
    </style>
    <path d="M133.385 125.761c.675 1.343 1.165 2.35 2.016 4.098-6.176 0-11.747.084-17.309-.084-.911-.027-2.147-.96-2.627-1.815-10.515-18.693-20.944-37.435-31.961-57.193 5.345 0 9.88.064 14.413-.012 13.92-.232 20.094-7.851 17.434-21.44-1.205-6.154-5.392-10.38-12.41-11.172-6.264-.707-12.643-.678-18.955-.476-1.603.052-3.474 1.72-4.665 3.119-14.357 16.874-28.683 33.777-42.827 50.83-2.767 3.336-4.642 4.608-9.039 4.665-4.294.056-8.648.065-13.01.065 1.354-1.727 2.174-2.723 2.918-3.643 17.908-22.152 35.794-44.324 53.863-66.345 1.329-1.62 4.001-2.983 6.066-3.008 9.641-.116 19.409-.603 28.906.695 15.265 2.085 24.403 12.015 25.944 26.185 1.596 14.672-5.175 25.365-19.943 31.503-.874.363-1.731.77-3.083 1.375 8.156 14.331 16.12 28.324 24.269 42.653Z"/>
    <path d="M77.596 96.397c6.484 11.061 12.79 21.802 19.633 33.462-6.453 0-12.135.084-17.808-.087-.893-.027-2.078-1.025-2.575-1.89C68.812 113.89 60.83 99.87 52.985 85.773c-.552-.992-.458-3.014.21-3.895 2.795-3.69 5.924-7.127 9.243-11.022a29382.99 29382.99 0 0 1 15.158 25.54zM14.13 63V23.457h15.884c.088 1.681.252 3.42.26 5.16.048 10.982.23 21.969-.036 32.944-.062 2.563-1.166 5.456-2.677 7.561-3.863 5.383-8.225 10.408-13.431 16.872V63z"/>
</svg>
